assets/img/logo-graphic.svg

<svg fill="none" height="134" viewBox="0 0 128 134" width="128" xmlns="http://www.w3.org/2000/svg" xmlns:xlink="http://www.w3.org/1999/xlink"><filter id="a" color-interpolation-filters="sRGB" filterUnits="userSpaceOnUse" height="133.185" width="127" x="1" y="0"><feFlood flood-opacity="0" result="BackgroundImageFix"/><feColorMatrix in="SourceAlpha" result="hardAlpha" type="matrix" values="0 0 0 0 0 0 0 0 0 0 0 0 0 0 0 0 0 0 127 0"/><feOffset/><feGaussianBlur stdDeviation="8"/><feComposite in2="hardAlpha" operator="out"/><feColorMatrix type="matrix" values="0 0 0 0 0.592157 0 0 0 0 0.172549 0 0 0 0 0.788235 0 0 0 0.3 0"/><feBlend in2="BackgroundImageFix" mode="normal" result="effect1_dropShadow_38_32"/><feBlend in="SourceGraphic" in2="effect1_dropShadow_38_32" mode="normal" result="shape"/></filter><g clip-rule="evenodd" fill-rule="evenodd" filter="url(#a)"><path d="m48.3042 32.0428c1.8327-2.2921 3.6838-4.3254 5.4979-6.0339.0595-.0626 6.1748-6.4094 16.2764-9.9821.1517-.0524.3216-.027.449.0677.1273.0947.194.2453.1759.3993-.1436 1.2281-.4251 3.6216-.4251 3.6216 2.1388.2284 4.1175 1.1418 4.9934 1.5968.1147.0626.1932.1709.2131.2944.02.1252-.0206.252-.1104.3434-.6621.6851-1.9855 2.0469-1.9878 2.0485 2.3807 1.9843 4.8616 4.5842 7.3093 7.6443 1.1577-.0795 2.2214-.203 3.1824-.3925 1.7148-.3383 3.0638-.8339 3.8771-1.8488 1.1456-1.4277 1.1114-3.6641.223-7.1064l-1.1473-4.4455 4.0604 2.1432c11.7155 6.1845 15.4615 12.8595 13.6985 19.9523-.538 2.1653-2.54 4.2645-5.7249 5.9933-1.3609.7392-2.9474 1.4311-4.6943 2.0739 5.8392.7003 13.3232 1.5968 16.5662 1.9859.428.0507.81.2825 1.04.6293.231.3485.286.7764.15 1.1672-1.722 5.0138-6.676 8.6423-12.5113 8.6423-1.1439 0-2.254-.1404-3.313-.4026 1.9421 5.7006 5.1943 17.0207 3.8964 34.3053-.0084.1134-.0736.2149-.1749.2758s-.2267.071-.3375.0288c-1.0377-.3993-3.4151-1.3144-3.4151-1.3144-.8411 4.2814-2.3351 7.6861-2.9239 8.9251-.0516.101-.1568.171-.2756.177-.1189.009-.2331-.044-.2994-.138-.6238-.887-1.9216-2.7323-1.9216-2.7323l-.0071-.0152c-7.4351 10.9545-23.271 17.2385-26.144 17.2385-2.8728 0-18.3344-6.206-26.1511-17.2233 0 0-1.2978 1.8453-1.9215 2.7323-.0664.094-.1806.147-.2995.138-.1188-.006-.224-.076-.2756-.177-.5888-1.239-2.0828-4.6437-2.9239-8.9251 0 0-2.3774.9151-3.4151 1.3144-.1108.0422-.2362.0321-.3375-.0288s-.1665-.1624-.1749-.2758c-1.3009-17.3184 1.9543-28.6047 3.8964-34.3053-1.059.2622-2.1692.4026-3.313.4026-5.8356 0-10.7891-3.6285-12.5111-8.6423-.1357-.3908-.0809-.8187.1495-1.1672.2304-.3468.6122-.5786 1.0405-.6293 3.2433-.3891 10.7265-1.2856 16.566-1.9859-1.7475-.6428-3.3348-1.3364-4.6961-2.0756-3.1841-1.7288-5.1853-3.828-5.7232-5.9916-1.7625-7.0928 1.9832-13.7678 13.6986-19.9523l4.0604-2.1432-1.1473 4.4455c-.8889 3.444-.9226 5.6803.2248 7.108.8154 1.015 2.1673 1.5123 3.8858 1.8489.9583.1878 2.0185.3113 3.172.3908z" fill="#972cc9"/><path d="m79.1841 69.909s.5971-2.0993 1.0149-3.5693c.0931-.3265.3569-.5785.6885-.6563.3315-.0778.68.0304.9101.2825 1.25 1.3752 1.8167 3.2394 1.3008 5.0561-.4415 1.5546-1.5749 2.7218-3.0144 3.346-.4517.1962-.9761.115-1.3465-.2098-.3705-.3247-.5227-.8339-.3874-1.3076.389-1.3735.834-2.9416.834-2.9416zm-32.0658-3.9346c.2301-.2538.5768-.3621.9101-.2843.3315.0762.5954.3282.6902.6564.4195 1.4666 1.02 3.5625 1.02 3.5625s.4483 1.5663.8407 2.9399c.1353.4737-.0135.9828-.384 1.3076-.3704.3248-.8931.4077-1.3465.2132-1.4412-.6208-2.5763-1.7864-3.0212-3.3392-.521-1.8134.0407-3.6775 1.2907-5.0561z" fill="#c4fc36"/><g fill="#fff"><path d="m54.6945 72.4713c.4582 2.0904 2.3094 3.5796 4.4489 3.5796 3.0948.0046 7.5061.0046 10.5985.0046 2.13 0 3.976-1.4753 4.4466-3.553 1.0001-5.1381 2.1449-13.0245 2.6949-19.5778.1167-1.5239-.7096-2.9645-2.0851-3.6305-1.9245-.8775-5.1619-1.8649-10.0572-1.8649-5.0356 0-8.4649 1.044-10.4919 1.9493-1.3846.6452-2.2323 2.0731-2.1355 3.5981.4534 6.4527 1.5303 14.1403 2.5808 19.4946z"/><path d="m74.4907 85.1559c.2185-1.0961-.0661-2.2326-.7754-3.0974-.7081-.8649-1.7681-1.3655-2.8852-1.3655-3.6985 0-8.9063 0-12.6261 0-1.1349 0-2.2092.511-2.9244 1.3932-.7151.881-.9948 2.0372-.7612 3.1483h.0005c.9208 4.3681 4.7757 7.4956 9.2405 7.4956.4955.0012.9946.0012 1.4905.0012 4.4909 0 8.3579-3.1691 9.2408-7.5719 0 0 0 0 0-.0035z"/></g></g></svg>

<svg width="128" height="134" viewBox="0 0 128 134" fill="none" xmlns="http://www.w3.org/2000/svg">
<g filter="url(#filter0_d_38_32)">
<path fill-rule="evenodd" clip-rule="evenodd" d="M48.3042 32.0428C50.1369 29.7507 51.988 27.7174 53.8021 26.0089C53.8616 25.9463 59.9769 19.5995 70.0785 16.0268C70.2302 15.9744 70.4001 15.9998 70.5275 16.0945C70.6548 16.1892 70.7215 16.3398 70.7034 16.4938C70.5598 17.7219 70.2783 20.1154 70.2783 20.1154C72.4171 20.3438 74.3958 21.2572 75.2717 21.7122C75.3864 21.7748 75.4649 21.8831 75.4848 22.0066C75.5048 22.1318 75.4642 22.2586 75.3744 22.35C74.7123 23.0351 73.3889 24.3969 73.3866 24.3985C75.7673 26.3828 78.2482 28.9827 80.6959 32.0428C81.8536 31.9633 82.9173 31.8398 83.8783 31.6503C85.5931 31.312 86.9421 30.8164 87.7554 29.8015C88.901 28.3738 88.8668 26.1374 87.9784 22.6951L86.8311 18.2496L90.8915 20.3928C102.607 26.5773 106.353 33.2523 104.59 40.3451C104.052 42.5104 102.05 44.6096 98.8651 46.3384C97.5042 47.0776 95.9177 47.7695 94.1708 48.4123C100.01 49.1126 107.494 50.0091 110.737 50.3982C111.165 50.4489 111.547 50.6807 111.777 51.0275C112.008 51.376 112.063 51.8039 111.927 52.1947C110.205 57.2085 105.251 60.837 99.4157 60.837C98.2718 60.837 97.1617 60.6966 96.1027 60.4344C98.0448 66.135 101.297 77.4551 99.9991 94.7397C99.9907 94.8531 99.9255 94.9546 99.8242 95.0155C99.7229 95.0764 99.5975 95.0865 99.4867 95.0443C98.449 94.645 96.0716 93.7299 96.0716 93.7299C95.2305 98.0113 93.7365 101.416 93.1477 102.655C93.0961 102.756 92.9909 102.826 92.8721 102.832C92.7532 102.841 92.639 102.788 92.5727 102.694C91.9489 101.807 90.6511 99.9617 90.6511 99.9617L90.644 99.9465C83.2089 110.901 67.373 117.185 64.5 117.185C61.6272 117.185 46.1656 110.979 38.3489 99.9617C38.3489 99.9617 37.0511 101.807 36.4274 102.694C36.361 102.788 36.2468 102.841 36.1279 102.832C36.0091 102.826 35.9039 102.756 35.8523 102.655C35.2635 101.416 33.7695 98.0113 32.9284 93.7299C32.9284 93.7299 30.551 94.645 29.5133 95.0443C29.4025 95.0865 29.2771 95.0764 29.1758 95.0155C29.0745 94.9546 29.0093 94.8531 29.0009 94.7397C27.7 77.4213 30.9552 66.135 32.8973 60.4344C31.8383 60.6966 30.7281 60.837 29.5843 60.837C23.7487 60.837 18.7952 57.2085 17.0732 52.1947C16.9375 51.8039 16.9923 51.376 17.2227 51.0275C17.4531 50.6807 17.8349 50.4489 18.2632 50.3982C21.5065 50.0091 28.9897 49.1126 34.8292 48.4123C33.0817 47.7695 31.4944 47.0759 30.1331 46.3367C26.949 44.6079 24.9478 42.5087 24.4099 40.3451C22.6474 33.2523 26.3931 26.5773 38.1085 20.3928L42.1689 18.2496L41.0216 22.6951C40.1327 26.1391 40.099 28.3754 41.2464 29.8031C42.0618 30.8181 43.4137 31.3154 45.1322 31.652C46.0905 31.8398 47.1507 31.9633 48.3042 32.0428Z" fill="#972CC9"/>
<path fill-rule="evenodd" clip-rule="evenodd" d="M79.1841 69.909C79.1841 69.909 79.7812 67.8097 80.199 66.3397C80.2921 66.0132 80.5559 65.7612 80.8875 65.6834C81.219 65.6056 81.5675 65.7138 81.7976 65.9659C83.0476 67.3411 83.6143 69.2053 83.0984 71.022C82.6569 72.5766 81.5235 73.7438 80.084 74.368C79.6323 74.5642 79.1079 74.483 78.7375 74.1582C78.367 73.8335 78.2148 73.3243 78.3501 72.8506C78.7391 71.4771 79.1841 69.909 79.1841 69.909ZM47.1183 65.9744C47.3484 65.7206 47.6951 65.6123 48.0284 65.6901C48.3599 65.7663 48.6238 66.0183 48.7186 66.3465C49.1381 67.8131 49.7386 69.909 49.7386 69.909C49.7386 69.909 50.1869 71.4753 50.5793 72.8489C50.7146 73.3226 50.5658 73.8317 50.1953 74.1565C49.8249 74.4813 49.3022 74.5642 48.8488 74.3697C47.4076 73.7489 46.2725 72.5833 45.8276 71.0305C45.3066 69.2171 45.8683 67.353 47.1183 65.9744Z" fill="#C4FC36"/>
<path fill-rule="evenodd" clip-rule="evenodd" d="M54.6945 72.4713C55.1527 74.5617 57.0039 76.0509 59.1434 76.0509C62.2382 76.0555 66.6495 76.0555 69.7419 76.0555C71.8719 76.0555 73.7179 74.5802 74.1885 72.5025C75.1886 67.3644 76.3334 59.478 76.8834 52.9247C77.0001 51.4008 76.1738 49.9602 74.7983 49.2942C72.8738 48.4167 69.6364 47.4293 64.7411 47.4293C59.7055 47.4293 56.2762 48.4733 54.2492 49.3786C52.8646 50.0238 52.0169 51.4517 52.1137 52.9767C52.5671 59.4294 53.644 67.117 54.6945 72.4713Z" fill="white"/>
<path fill-rule="evenodd" clip-rule="evenodd" d="M74.4907 85.1559C74.7092 84.0598 74.4246 82.9233 73.7153 82.0585C73.0072 81.1936 71.9472 80.693 70.8301 80.693C67.1316 80.693 61.9238 80.693 58.204 80.693C57.0691 80.693 55.9948 81.204 55.2796 82.0862C54.5645 82.9672 54.2848 84.1234 54.5184 85.2345C54.5189 85.2345 54.5189 85.2345 54.5189 85.2345C55.4397 89.6026 59.2946 92.7301 63.7594 92.7301C64.2549 92.7313 64.754 92.7313 65.2499 92.7313C69.7408 92.7313 73.6078 89.5622 74.4907 85.1594C74.4907 85.1594 74.4907 85.1594 74.4907 85.1559Z" fill="white"/>
</g>
<defs>
<filter id="filter0_d_38_32" x="1" y="0" width="127" height="133.185" filterUnits="userSpaceOnUse" color-interpolation-filters="sRGB">
<feFlood flood-opacity="0" result="BackgroundImageFix"/>
<feColorMatrix in="SourceAlpha" type="matrix" values="0 0 0 0 0 0 0 0 0 0 0 0 0 0 0 0 0 0 127 0" result="hardAlpha"/>
<feOffset/>
<feGaussianBlur stdDeviation="8"/>
<feComposite in2="hardAlpha" operator="out"/>
<feColorMatrix type="matrix" values="0 0 0 0 0.592157 0 0 0 0 0.172549 0 0 0 0 0.788235 0 0 0 0.3 0"/>
<feBlend mode="normal" in2="BackgroundImageFix" result="effect1_dropShadow_38_32"/>
<feBlend mode="normal" in="SourceGraphic" in2="effect1_dropShadow_38_32" result="shape"/>
</filter>
</defs>
</svg>
